images/226105.svg

<?xml version="1.0" encoding="UTF-8"?>
<svg xmlns="http://www.w3.org/2000/svg" xmlns:xlink="http://www.w3.org/1999/xlink" width="300pt" height="300pt" viewBox="0 0 300 300" version="1.1">
<defs>
<g>
<symbol overflow="visible" id="glyph0-0">
<path style="stroke:none;" d="M 0.546875 1.9375 L 0.546875 -7.75 L 6.046875 -7.75 L 6.046875 1.9375 Z M 1.171875 1.328125 L 5.4375 1.328125 L 5.4375 -7.140625 L 1.171875 -7.140625 Z M 1.171875 1.328125 "/>
</symbol>
<symbol overflow="visible" id="glyph0-1">
<path style="stroke:none;" d="M 5.890625 -7.75 L 5.890625 -6.703125 C 5.472656 -6.898438 5.082031 -7.046875 4.71875 -7.140625 C 4.351562 -7.234375 4 -7.28125 3.65625 -7.28125 C 3.070312 -7.28125 2.617188 -7.164062 2.296875 -6.9375 C 1.972656 -6.707031 1.8125 -6.382812 1.8125 -5.96875 C 1.8125 -5.613281 1.914062 -5.34375 2.125 -5.15625 C 2.34375 -4.976562 2.75 -4.832031 3.34375 -4.71875 L 4 -4.59375 C 4.8125 -4.4375 5.410156 -4.160156 5.796875 -3.765625 C 6.179688 -3.378906 6.375 -2.863281 6.375 -2.21875 C 6.375 -1.4375 6.113281 -0.84375 5.59375 -0.4375 C 5.070312 -0.0390625 4.304688 0.15625 3.296875 0.15625 C 2.921875 0.15625 2.515625 0.109375 2.078125 0.015625 C 1.648438 -0.0664062 1.207031 -0.191406 0.75 -0.359375 L 0.75 -1.46875 C 1.195312 -1.21875 1.628906 -1.03125 2.046875 -0.90625 C 2.472656 -0.78125 2.890625 -0.71875 3.296875 -0.71875 C 3.921875 -0.71875 4.398438 -0.835938 4.734375 -1.078125 C 5.066406 -1.328125 5.234375 -1.675781 5.234375 -2.125 C 5.234375 -2.519531 5.113281 -2.828125 4.875 -3.046875 C 4.632812 -3.273438 4.238281 -3.445312 3.6875 -3.5625 L 3.03125 -3.6875 C 2.21875 -3.84375 1.628906 -4.09375 1.265625 -4.4375 C 0.898438 -4.78125 0.71875 -5.257812 0.71875 -5.875 C 0.71875 -6.582031 0.96875 -7.140625 1.46875 -7.546875 C 1.96875 -7.960938 2.660156 -8.171875 3.546875 -8.171875 C 3.921875 -8.171875 4.300781 -8.132812 4.6875 -8.0625 C 5.082031 -7.988281 5.484375 -7.882812 5.890625 -7.75 Z M 5.890625 -7.75 "/>
</symbol>
<symbol overflow="visible" id="glyph0-2">
<path style="stroke:none;" d="M 4.328125 -7.28125 C 3.546875 -7.28125 2.921875 -6.984375 2.453125 -6.390625 C 1.992188 -5.804688 1.765625 -5.007812 1.765625 -4 C 1.765625 -2.988281 1.992188 -2.1875 2.453125 -1.59375 C 2.921875 -1.007812 3.546875 -0.71875 4.328125 -0.71875 C 5.117188 -0.71875 5.742188 -1.007812 6.203125 -1.59375 C 6.660156 -2.1875 6.890625 -2.988281 6.890625 -4 C 6.890625 -5.007812 6.660156 -5.804688 6.203125 -6.390625 C 5.742188 -6.984375 5.117188 -7.28125 4.328125 -7.28125 Z M 4.328125 -8.171875 C 5.453125 -8.171875 6.351562 -7.789062 7.03125 -7.03125 C 7.707031 -6.28125 8.046875 -5.269531 8.046875 -4 C 8.046875 -2.738281 7.707031 -1.726562 7.03125 -0.96875 C 6.351562 -0.21875 5.453125 0.15625 4.328125 0.15625 C 3.203125 0.15625 2.300781 -0.21875 1.625 -0.96875 C 0.957031 -1.71875 0.625 -2.726562 0.625 -4 C 0.625 -5.269531 0.957031 -6.28125 1.625 -7.03125 C 2.300781 -7.789062 3.203125 -8.171875 4.328125 -8.171875 Z M 4.328125 -8.171875 "/>
</symbol>
<symbol overflow="visible" id="glyph0-3">
<path style="stroke:none;" d="M 1.078125 -8.015625 L 2.171875 -8.015625 L 2.171875 -4.734375 L 6.109375 -4.734375 L 6.109375 -8.015625 L 7.1875 -8.015625 L 7.1875 0 L 6.109375 0 L 6.109375 -3.8125 L 2.171875 -3.8125 L 2.171875 0 L 1.078125 0 Z M 1.078125 -8.015625 "/>
</symbol>
</g>
</defs>
<g id="surface31481">
<rect x="0" y="0" width="300" height="300" style="fill:rgb(100%,100%,100%);fill-opacity:1;stroke:none;"/>
<path style="fill:none;stroke-width:1.2;stroke-linecap:butt;stroke-linejoin:miter;stroke:rgb(0%,0%,0%);stroke-opacity:1;stroke-miterlimit:10;" d="M 53.390625 207.835938 L 35.25 186.4375 "/>
<path style="fill:none;stroke-width:1.2;stroke-linecap:butt;stroke-linejoin:miter;stroke:rgb(0%,0%,0%);stroke-opacity:1;stroke-miterlimit:10;" d="M 56.613281 201.425781 L 42.097656 184.308594 "/>
<path style="fill:none;stroke-width:1.2;stroke-linecap:butt;stroke-linejoin:miter;stroke:rgb(0%,0%,0%);stroke-opacity:1;stroke-miterlimit:10;" d="M 80.996094 202.820312 L 53.390625 207.835938 "/>
<path style="fill:none;stroke-width:1.2;stroke-linecap:butt;stroke-linejoin:miter;stroke:rgb(0%,0%,0%);stroke-opacity:1;stroke-miterlimit:10;" d="M 35.25 186.4375 L 44.710938 160.027344 "/>
<path style="fill:none;stroke-width:1.2;stroke-linecap:butt;stroke-linejoin:miter;stroke:rgb(0%,0%,0%);stroke-opacity:1;stroke-miterlimit:10;" d="M 44.710938 160.027344 L 72.3125 155.011719 "/>
<path style="fill:none;stroke-width:1.2;stroke-linecap:butt;stroke-linejoin:miter;stroke:rgb(0%,0%,0%);stroke-opacity:1;stroke-miterlimit:10;" d="M 48.648438 166.019531 L 70.730469 162.007812 "/>
<path style="fill:none;stroke-width:1.2;stroke-linecap:butt;stroke-linejoin:miter;stroke:rgb(0%,0%,0%);stroke-opacity:1;stroke-miterlimit:10;" d="M 72.3125 155.011719 L 90.453125 176.410156 "/>
<path style="fill:none;stroke-width:1.2;stroke-linecap:butt;stroke-linejoin:miter;stroke:rgb(0%,0%,0%);stroke-opacity:1;stroke-miterlimit:10;" d="M 81.769531 128.601562 L 72.3125 155.011719 "/>
<path style="fill:none;stroke-width:1.2;stroke-linecap:butt;stroke-linejoin:miter;stroke:rgb(0%,0%,0%);stroke-opacity:1;stroke-miterlimit:10;" d="M 90.453125 176.410156 L 80.996094 202.820312 "/>
<path style="fill:none;stroke-width:1.2;stroke-linecap:butt;stroke-linejoin:miter;stroke:rgb(0%,0%,0%);stroke-opacity:1;stroke-miterlimit:10;" d="M 83.292969 176.824219 L 75.726562 197.953125 "/>
<path style="fill:none;stroke-width:1.2;stroke-linecap:butt;stroke-linejoin:miter;stroke:rgb(0%,0%,0%);stroke-opacity:1;stroke-miterlimit:10;" d="M 90.453125 176.410156 L 118.054688 171.398438 "/>
<path style="fill:none;stroke-width:1.2;stroke-linecap:butt;stroke-linejoin:miter;stroke:rgb(0%,0%,0%);stroke-opacity:1;stroke-miterlimit:10;" d="M 118.054688 171.398438 L 127.515625 144.988281 "/>
<path style="fill:none;stroke-width:1.2;stroke-linecap:butt;stroke-linejoin:miter;stroke:rgb(0%,0%,0%);stroke-opacity:1;stroke-miterlimit:10;" d="M 125.214844 170.980469 L 132.785156 149.855469 "/>
<path style="fill:none;stroke-width:1.2;stroke-linecap:butt;stroke-linejoin:miter;stroke:rgb(0%,0%,0%);stroke-opacity:1;stroke-miterlimit:10;" d="M 136.199219 192.796875 L 118.054688 171.398438 "/>
<path style="fill:none;stroke-width:1.2;stroke-linecap:butt;stroke-linejoin:miter;stroke:rgb(0%,0%,0%);stroke-opacity:1;stroke-miterlimit:10;" d="M 127.515625 144.988281 L 155.117188 139.972656 "/>
<path style="fill:none;stroke-width:1.2;stroke-linecap:butt;stroke-linejoin:miter;stroke:rgb(0%,0%,0%);stroke-opacity:1;stroke-miterlimit:10;" d="M 109.375 123.589844 L 127.515625 144.988281 "/>
<path style="fill:none;stroke-width:1.2;stroke-linecap:butt;stroke-linejoin:miter;stroke:rgb(0%,0%,0%);stroke-opacity:1;stroke-miterlimit:10;" d="M 155.117188 139.972656 L 173.261719 161.371094 "/>
<path style="fill:none;stroke-width:1.2;stroke-linecap:butt;stroke-linejoin:miter;stroke:rgb(0%,0%,0%);stroke-opacity:1;stroke-miterlimit:10;" d="M 151.898438 146.382812 L 166.410156 163.5 "/>
<path style="fill:none;stroke-width:1.2;stroke-linecap:butt;stroke-linejoin:miter;stroke:rgb(0%,0%,0%);stroke-opacity:1;stroke-miterlimit:10;" d="M 155.117188 139.972656 L 164.578125 113.5625 "/>
<path style="fill:none;stroke-width:1.2;stroke-linecap:butt;stroke-linejoin:miter;stroke:rgb(0%,0%,0%);stroke-opacity:1;stroke-miterlimit:10;" d="M 173.261719 161.371094 L 163.800781 187.78125 "/>
<path style="fill:none;stroke-width:1.2;stroke-linecap:butt;stroke-linejoin:miter;stroke:rgb(0%,0%,0%);stroke-opacity:1;stroke-miterlimit:10;" d="M 173.261719 161.371094 L 187.0625 158.863281 "/>
<path style="fill:none;stroke-width:1.2;stroke-linecap:butt;stroke-linejoin:miter;stroke:rgb(80%,80%,0%);stroke-opacity:1;stroke-miterlimit:10;" d="M 187.0625 158.863281 L 200.863281 156.359375 "/>
<path style="fill:none;stroke-width:1.2;stroke-linecap:butt;stroke-linejoin:miter;stroke:rgb(0%,0%,0%);stroke-opacity:1;stroke-miterlimit:10;" d="M 163.800781 187.78125 L 136.199219 192.796875 "/>
<path style="fill:none;stroke-width:1.2;stroke-linecap:butt;stroke-linejoin:miter;stroke:rgb(0%,0%,0%);stroke-opacity:1;stroke-miterlimit:10;" d="M 159.859375 181.789062 L 137.78125 185.800781 "/>
<path style="fill:none;stroke-width:1.2;stroke-linecap:butt;stroke-linejoin:miter;stroke:rgb(80%,80%,0%);stroke-opacity:1;stroke-miterlimit:10;" d="M 203.96875 157.472656 L 208.699219 144.265625 "/>
<path style="fill:none;stroke-width:1.2;stroke-linecap:butt;stroke-linejoin:miter;stroke:rgb(100%,0%,0%);stroke-opacity:1;stroke-miterlimit:10;" d="M 208.699219 144.265625 L 213.429688 131.0625 "/>
<path style="fill:none;stroke-width:1.2;stroke-linecap:butt;stroke-linejoin:miter;stroke:rgb(80%,80%,0%);stroke-opacity:1;stroke-miterlimit:10;" d="M 197.753906 155.246094 L 202.484375 142.039062 "/>
<path style="fill:none;stroke-width:1.2;stroke-linecap:butt;stroke-linejoin:miter;stroke:rgb(100%,0%,0%);stroke-opacity:1;stroke-miterlimit:10;" d="M 202.484375 142.039062 L 207.214844 128.835938 "/>
<path style="fill:none;stroke-width:1.2;stroke-linecap:butt;stroke-linejoin:miter;stroke:rgb(80%,80%,0%);stroke-opacity:1;stroke-miterlimit:10;" d="M 200.863281 156.359375 L 209.933594 167.058594 "/>
<path style="fill:none;stroke-width:1.2;stroke-linecap:butt;stroke-linejoin:miter;stroke:rgb(0%,0%,0%);stroke-opacity:1;stroke-miterlimit:10;" d="M 209.933594 167.058594 L 219.003906 177.757812 "/>
<path style=" stroke:none;fill-rule:nonzero;fill:rgb(100%,100%,100%);fill-opacity:1;" d="M 197.863281 149.859375 L 204.863281 149.859375 L 204.863281 162.859375 L 197.863281 162.859375 Z M 197.863281 149.859375 "/>
<g style="fill:rgb(80%,80%,0%);fill-opacity:1;">
  <use xlink:href="#glyph0-1" x="197.863281" y="159.760742"/>
</g>
<path style=" stroke:none;fill-rule:nonzero;fill:rgb(100%,100%,100%);fill-opacity:1;" d="M 206.324219 123.449219 L 215.324219 123.449219 L 215.324219 136.449219 L 206.324219 136.449219 Z M 206.324219 123.449219 "/>
<g style="fill:rgb(100%,0%,0%);fill-opacity:1;">
  <use xlink:href="#glyph0-2" x="206.324219" y="133.350586"/>
</g>
<path style="fill:none;stroke-width:1.2;stroke-linecap:butt;stroke-linejoin:miter;stroke:rgb(0%,0%,0%);stroke-opacity:1;stroke-miterlimit:10;" d="M 219.003906 177.757812 L 246.609375 172.742188 "/>
<path style="fill:none;stroke-width:1.2;stroke-linecap:butt;stroke-linejoin:miter;stroke:rgb(0%,0%,0%);stroke-opacity:1;stroke-miterlimit:10;" d="M 249.714844 173.855469 L 254.445312 160.652344 "/>
<path style="fill:none;stroke-width:1.2;stroke-linecap:butt;stroke-linejoin:miter;stroke:rgb(100%,0%,0%);stroke-opacity:1;stroke-miterlimit:10;" d="M 254.445312 160.652344 L 259.175781 147.445312 "/>
<path style="fill:none;stroke-width:1.2;stroke-linecap:butt;stroke-linejoin:miter;stroke:rgb(0%,0%,0%);stroke-opacity:1;stroke-miterlimit:10;" d="M 243.5 171.628906 L 248.230469 158.425781 "/>
<path style="fill:none;stroke-width:1.2;stroke-linecap:butt;stroke-linejoin:miter;stroke:rgb(100%,0%,0%);stroke-opacity:1;stroke-miterlimit:10;" d="M 248.230469 158.425781 L 252.960938 145.21875 "/>
<path style="fill:none;stroke-width:1.2;stroke-linecap:butt;stroke-linejoin:miter;stroke:rgb(0%,0%,0%);stroke-opacity:1;stroke-miterlimit:10;" d="M 246.609375 172.742188 L 255.679688 183.441406 "/>
<path style="fill:none;stroke-width:1.2;stroke-linecap:butt;stroke-linejoin:miter;stroke:rgb(100%,0%,0%);stroke-opacity:1;stroke-miterlimit:10;" d="M 255.679688 183.441406 L 264.75 194.140625 "/>
<path style=" stroke:none;fill-rule:nonzero;fill:rgb(100%,100%,100%);fill-opacity:1;" d="M 252.066406 139.832031 L 261.066406 139.832031 L 261.066406 152.832031 L 252.066406 152.832031 Z M 252.066406 139.832031 "/>
<g style="fill:rgb(100%,0%,0%);fill-opacity:1;">
  <use xlink:href="#glyph0-2" x="252.066406" y="149.733398"/>
</g>
<path style=" stroke:none;fill-rule:nonzero;fill:rgb(100%,100%,100%);fill-opacity:1;" d="M 256.75 187.640625 L 273.75 187.640625 L 273.75 200.640625 L 256.75 200.640625 Z M 256.75 187.640625 "/>
<g style="fill:rgb(100%,0%,0%);fill-opacity:1;">
  <use xlink:href="#glyph0-2" x="256.75" y="197.541992"/>
  <use xlink:href="#glyph0-3" x="265.150391" y="197.541992"/>
</g>
<path style="fill:none;stroke-width:1.2;stroke-linecap:butt;stroke-linejoin:miter;stroke:rgb(0%,0%,0%);stroke-opacity:1;stroke-miterlimit:10;" d="M 164.578125 113.5625 L 146.433594 92.164062 "/>
<path style="fill:none;stroke-width:1.2;stroke-linecap:butt;stroke-linejoin:miter;stroke:rgb(0%,0%,0%);stroke-opacity:1;stroke-miterlimit:10;" d="M 157.730469 115.691406 L 143.214844 98.574219 "/>
<path style="fill:none;stroke-width:1.2;stroke-linecap:butt;stroke-linejoin:miter;stroke:rgb(0%,0%,0%);stroke-opacity:1;stroke-miterlimit:10;" d="M 146.433594 92.164062 L 118.832031 97.179688 "/>
<path style="fill:none;stroke-width:1.2;stroke-linecap:butt;stroke-linejoin:miter;stroke:rgb(0%,0%,0%);stroke-opacity:1;stroke-miterlimit:10;" d="M 118.832031 97.179688 L 109.375 123.589844 "/>
<path style="fill:none;stroke-width:1.2;stroke-linecap:butt;stroke-linejoin:miter;stroke:rgb(0%,0%,0%);stroke-opacity:1;stroke-miterlimit:10;" d="M 124.101562 102.046875 L 116.535156 123.175781 "/>
<path style="fill:none;stroke-width:1.2;stroke-linecap:butt;stroke-linejoin:miter;stroke:rgb(0%,0%,0%);stroke-opacity:1;stroke-miterlimit:10;" d="M 109.375 123.589844 L 81.769531 128.601562 "/>
<path style="fill:none;stroke-width:1.2;stroke-linecap:butt;stroke-linejoin:miter;stroke:rgb(0%,0%,0%);stroke-opacity:1;stroke-miterlimit:10;" d="M 84.289062 126.46875 L 75.21875 115.769531 "/>
<path style="fill:none;stroke-width:1.2;stroke-linecap:butt;stroke-linejoin:miter;stroke:rgb(100%,0%,0%);stroke-opacity:1;stroke-miterlimit:10;" d="M 75.21875 115.769531 L 66.144531 105.070312 "/>
<path style="fill:none;stroke-width:1.2;stroke-linecap:butt;stroke-linejoin:miter;stroke:rgb(0%,0%,0%);stroke-opacity:1;stroke-miterlimit:10;" d="M 79.253906 130.738281 L 70.183594 120.039062 "/>
<path style="fill:none;stroke-width:1.2;stroke-linecap:butt;stroke-linejoin:miter;stroke:rgb(100%,0%,0%);stroke-opacity:1;stroke-miterlimit:10;" d="M 70.183594 120.039062 L 61.113281 109.339844 "/>
<path style=" stroke:none;fill-rule:nonzero;fill:rgb(100%,100%,100%);fill-opacity:1;" d="M 54.628906 100.703125 L 63.628906 100.703125 L 63.628906 113.703125 L 54.628906 113.703125 Z M 54.628906 100.703125 "/>
<g style="fill:rgb(100%,0%,0%);fill-opacity:1;">
  <use xlink:href="#glyph0-2" x="54.628906" y="110.604492"/>
</g>
</g>
</svg>

<svg xmlns="http://www.w3.org/2000/svg" xmlns:xlink="http://www.w3.org/1999/xlink" width="300pt" height="300pt" viewBox="0 0 300 300"><defs><symbol overflow="visible"><path d="M.547 1.938V-7.75h5.5v9.688zm.625-.61h4.266v-8.47H1.171zm0 0"/></symbol><symbol overflow="visible" id="a"><path d="M5.89-7.75v1.047c-.417-.195-.808-.344-1.17-.438-.368-.094-.72-.14-1.064-.14-.586 0-1.04.116-1.36.343-.323.23-.483.554-.483.968 0 .357.1.626.312.814.22.18.625.324 1.22.437L4-4.593c.813.157 1.41.434 1.797.828.383.387.578.903.578 1.547 0 .783-.262 1.376-.78 1.783-.525.398-1.29.593-2.298.593-.375 0-.78-.047-1.22-.14C1.648-.066 1.208-.19.75-.36v-1.11c.445.25.88.44 1.297.564.426.125.844.187 1.25.187.625 0 1.1-.116 1.437-.358.332-.25.5-.598.5-1.047 0-.395-.12-.703-.36-.922-.24-.226-.636-.398-1.186-.515l-.657-.126c-.81-.156-1.4-.406-1.764-.75C.898-4.78.72-5.258.72-5.875c0-.707.25-1.266.75-1.672.5-.414 1.19-.625 2.077-.625.375 0 .754.04 1.14.11.395.074.797.18 1.204.312zm0 0"/></symbol><symbol overflow="visible" id="b"><path d="M4.328-7.28c-.78 0-1.406.296-1.875.89-.46.585-.687 1.382-.687 2.39 0 1.012.226 1.813.687 2.406.47.586 1.094.875 1.875.875.79 0 1.414-.288 1.875-.874.457-.593.688-1.394.688-2.406 0-1.008-.23-1.805-.687-2.39-.46-.594-1.086-.89-1.875-.89zm0-.892c1.125 0 2.024.383 2.703 1.14C7.708-6.28 8.048-5.27 8.048-4c0 1.262-.34 2.273-1.016 3.03C6.353-.22 5.454.157 4.33.157S2.3-.22 1.625-.97c-.668-.75-1-1.757-1-3.03 0-1.27.332-2.28 1-3.03.676-.76 1.578-1.142 2.703-1.142zm0 0"/></symbol><symbol overflow="visible" id="c"><path d="M1.078-8.016h1.094v3.282H6.11v-3.282h1.077V0H6.11v-3.813H2.17V0H1.078zm0 0"/></symbol></defs><g><path fill="#fff" d="M0 0h300v300H0z"/><path d="M53.39 207.836l-18.14-21.4M56.613 201.426L42.098 184.31M80.996 202.82l-27.605 5.016M35.25 186.438l9.46-26.41M44.71 160.027l27.602-5.015M48.648 166.02l22.082-4.012M72.313 155.012l18.14 21.398M81.77 128.602l-9.457 26.41M90.453 176.41l-9.457 26.41M83.293 176.824l-7.566 21.13M90.453 176.41l27.602-5.012M118.055 171.398l9.46-26.41M125.215 170.98l7.57-21.125M136.2 192.797l-18.145-21.4M127.516 144.988l27.6-5.015M109.375 123.59l18.14 21.398M155.117 139.973l18.145 21.398M151.898 146.383L166.41 163.5M155.117 139.973l9.46-26.41M173.262 161.37l-9.46 26.41M173.262 161.37l13.8-2.507" stroke-width="1.2" stroke="#000" stroke-miterlimit="10" fill="none"/><path d="M187.063 158.863l13.8-2.504" stroke-width="1.2" stroke="#cc0" stroke-miterlimit="10" fill="none"/><path d="M163.8 187.78l-27.6 5.017M159.86 181.79l-22.08 4.01" stroke-width="1.2" stroke="#000" stroke-miterlimit="10" fill="none"/><path d="M203.97 157.473l4.73-13.207" stroke-width="1.2" stroke="#cc0" stroke-miterlimit="10" fill="none"/><path d="M208.7 144.266l4.73-13.203" stroke-width="1.2" stroke="#f00" stroke-miterlimit="10" fill="none"/><path d="M197.754 155.246l4.73-13.207" stroke-width="1.2" stroke="#cc0" stroke-miterlimit="10" fill="none"/><path d="M202.484 142.04l4.73-13.204" stroke-width="1.2" stroke="#f00" stroke-miterlimit="10" fill="none"/><path d="M200.863 156.36l9.07 10.7" stroke-width="1.2" stroke="#cc0" stroke-miterlimit="10" fill="none"/><path d="M209.934 167.06l9.07 10.698" stroke-width="1.2" stroke="#000" stroke-miterlimit="10" fill="none"/><path d="M197.863 149.86h7v13h-7zm0 0" fill="#fff"/><use xlink:href="#a" x="197.863" y="159.761" fill="#cc0"/><path d="M206.324 123.45h9v13h-9zm0 0" fill="#fff"/><use xlink:href="#b" x="206.324" y="133.351" fill="#f00"/><path d="M219.004 177.758l27.605-5.016M249.715 173.855l4.73-13.203" stroke-width="1.2" stroke="#000" stroke-miterlimit="10" fill="none"/><path d="M254.445 160.652l4.73-13.207" stroke-width="1.2" stroke="#f00" stroke-miterlimit="10" fill="none"/><path d="M243.5 171.63l4.73-13.204" stroke-width="1.2" stroke="#000" stroke-miterlimit="10" fill="none"/><path d="M248.23 158.426l4.73-13.207" stroke-width="1.2" stroke="#f00" stroke-miterlimit="10" fill="none"/><path d="M246.61 172.742l9.07 10.7" stroke-width="1.2" stroke="#000" stroke-miterlimit="10" fill="none"/><path d="M255.68 183.44l9.07 10.7" stroke-width="1.2" stroke="#f00" stroke-miterlimit="10" fill="none"/><path d="M252.066 139.832h9v13h-9zm0 0" fill="#fff"/><use xlink:href="#b" x="252.066" y="149.733" fill="#f00"/><path d="M256.75 187.64h17v13h-17zm0 0" fill="#fff"/><g fill="#f00"><use xlink:href="#b" x="256.75" y="197.542"/><use xlink:href="#c" x="265.15" y="197.542"/></g><path d="M164.578 113.563l-18.144-21.4M157.73 115.69l-14.515-17.116M146.434 92.164l-27.602 5.016M118.832 97.18l-9.457 26.41M124.102 102.047l-7.567 21.13M109.375 123.59l-27.605 5.012M84.29 126.47l-9.07-10.7" stroke-width="1.2" stroke="#000" stroke-miterlimit="10" fill="none"/><path d="M75.22 115.77l-9.075-10.7" stroke-width="1.2" stroke="#f00" stroke-miterlimit="10" fill="none"/><path d="M79.254 130.738l-9.07-10.7" stroke-width="1.2" stroke="#000" stroke-miterlimit="10" fill="none"/><path d="M70.184 120.04l-9.07-10.7" stroke-width="1.2" stroke="#f00" stroke-miterlimit="10" fill="none"/><path d="M54.63 100.703h9v13h-9zm0 0" fill="#fff"/><use xlink:href="#b" x="54.629" y="110.604" fill="#f00"/></g></svg>
